assets/img/icons/socials-vk.svg

<svg width="32" height="32" viewBox="0 0 32 32" fill="none" xmlns="http://www.w3.org/2000/svg">
<rect width="32" height="32" rx="16" fill="white"/>
<path d="M24.5787 21.3337H22.5369C21.7587 21.3337 21.5301 20.7364 20.1452 19.4038C18.9329 18.2799 18.4137 18.134 18.1116 18.134C17.6997 18.134 17.5772 18.2463 17.5772 18.8076V20.5691C17.5772 21.0519 17.4174 21.3337 16.1188 21.3337C13.9557 21.3337 11.5779 20.0695 9.88967 17.7388C7.35788 14.3247 6.66602 11.7437 6.66602 11.2238C6.66602 10.9319 6.78269 10.6681 7.36605 10.6681H9.40898C9.9305 10.6681 10.1265 10.8882 10.3225 11.4315C11.3212 14.2304 13.006 16.6767 13.6978 16.6767C13.9569 16.6767 14.0759 16.5611 14.0759 15.9279V13.0347C14 11.7032 13.2638 11.5932 13.2638 11.1194C13.2638 10.9005 13.4587 10.6681 13.783 10.6681H16.9927C17.4255 10.6681 17.576 10.8904 17.576 11.39V15.2824C17.576 15.6978 17.7639 15.8437 17.8934 15.8437C18.1536 15.8437 18.3694 15.6978 18.8454 15.2397C20.3167 13.6578 21.355 11.2227 21.355 11.2227C21.4857 10.9308 21.7237 10.667 22.2441 10.667H24.2859C24.903 10.667 25.0337 10.9724 24.903 11.3889C24.6429 12.534 22.1554 15.9055 22.1554 15.9055C21.9384 16.2389 21.8521 16.4051 22.1554 16.78C22.3724 17.0719 23.0853 17.6546 23.5613 18.1957C24.4387 19.1455 25.1002 19.946 25.2846 20.4984C25.4549 21.053 25.1621 21.3337 24.5787 21.3337Z" fill="#AD2C2C"/>
</svg>

<svg width="32" height="32" fill="none" xmlns="http://www.w3.org/2000/svg"><rect width="32" height="32" rx="16" fill="#fff"/><path d="M24.579 21.334h-2.042c-.778 0-1.007-.598-2.392-1.93-1.212-1.124-1.731-1.27-2.033-1.27-.412 0-.535.112-.535.674v1.761c0 .483-.16.765-1.458.765-2.163 0-4.541-1.264-6.23-3.595-2.531-3.414-3.223-5.995-3.223-6.515 0-.292.117-.556.7-.556H9.41c.521 0 .717.22.913.764 1 2.798 2.684 5.245 3.376 5.245.259 0 .378-.116.378-.75v-2.892c-.076-1.332-.812-1.442-.812-1.916 0-.219.195-.45.519-.45h3.21c.433 0 .583.221.583.721v3.892c0 .416.188.562.317.562.26 0 .476-.146.952-.604 1.472-1.582 2.51-4.017 2.51-4.017.13-.292.369-.556.89-.556h2.04c.618 0 .749.305.618.722-.26 1.145-2.748 4.517-2.748 4.517-.217.333-.303.5 0 .874.217.292.93.875 1.406 1.416.878.95 1.54 1.75 1.724 2.302.17.555-.123.836-.706.836Z" fill="#AD2C2C"/></svg>
